src/images_karasa_jaga_svg/cmd/sc_symbolshapes.sun.svg

<svg height="16" viewBox="0 0 16 16" width="16" xmlns="http://www.w3.org/2000/svg" xmlns:xlink="http://www.w3.org/1999/xlink"><linearGradient id="a"><stop offset="0" stop-color="#fff"/><stop offset=".46428573" stop-color="#fff"/><stop offset=".78125" stop-color="#f1f1f1"/><stop offset=".90625" stop-color="#eaeaea"/><stop offset="1" stop-color="#dfdfdf"/></linearGradient><linearGradient id="b" gradientUnits="userSpaceOnUse" x1="63.99876" x2="63.99876" xlink:href="#a" y1="144.00742" y2="-24.00556"/><linearGradient id="c" gradientTransform="matrix(1.0256093 -.00878338 .00878338 1.0256093 -2.201133 -1.076861)" gradientUnits="userSpaceOnUse" x1="63.423752" x2="64.522041" xlink:href="#a" y1="131.17645" y2="2.932293"/><linearGradient id="d" gradientUnits="userSpaceOnUse" x1="-.000599" x2="128.0006" y1="64.000252" y2="64.000252"><stop offset="0" stop-color="#7c9fcf"/><stop offset=".5" stop-color="#7c9ece"/><stop offset="1" stop-color="#7b9dcf"/></linearGradient><g transform="matrix(.125 0 0 .125 .000002 -.00003)"><path d="m64.232422 0c-3.443497-.01722312-6.47203 2.2735805-7.392578 5.5917969l-6.753906 24.3886721-22.017579-12.603516c-6.732898-3.849714-14.249724 3.631927-10.43164 10.382813l12.470703 22.023437-24.4804689 6.658203c-7.4848456 2.037456-7.5101832 12.645562-.035156 14.71875l24.3886719 6.753906-12.603516 22.017579c-3.849712 6.732899 3.631928 14.249719 10.382813 10.431639l22.023437-12.470702 6.658203 24.480472c2.037485 7.48484 12.64559 7.51013 14.71875.0351l6.753906-24.388619 22.017579 12.603519c6.732899 3.84972 14.249739-3.63193 10.431639-10.38282l-12.470702-22.023433 24.480472-6.658203c7.48484-2.037485 7.51013-12.64559.0351-14.71875l-24.388619-6.753906 12.603519-22.017579c3.84973-6.732904-3.63193-14.249739-10.38282-10.43164l-22.023433 12.470703-6.658203-24.4804689c-.900822-3.3083838-3.897383-5.60992815-7.326172-5.6269531z" fill="url(#d)"/><path d="m64.195553 7.6282442-9.127897 32.9643028c2.775302-1.059723 5.784687-1.646425 8.932344-1.646427 3.244193.000002 6.341422.622829 9.186773 1.745255zm-39.917991 16.3717588 16.855385 29.766071c2.550416-5.689841 7.157032-10.253842 12.879144-12.744572zm79.722438.277559-29.766074 16.855385c5.689841 2.550416 10.253841 7.157032 12.744572 12.879144zm-63.308625 30.535665-33.0631308 8.99122 32.9643028 9.127897c-1.059723-2.775302-1.646425-5.784688-1.646427-8.932344.000002-3.244193.622829-6.341422 1.745255-9.186773zm46.716078.254429c1.059724 2.775302 1.646424 5.784687 1.646427 8.932344-.000003 3.244193-.622829 6.341422-1.745255 9.186773l33.063135-8.99122zm-46.385951 18.920253-17.021499 29.734521 29.766071-16.855377c-5.689841-2.550416-10.253842-7.157032-12.744572-12.879144zm45.845551.246017c-2.550416 5.689841-7.157032 10.253841-12.879144 12.744572l29.734521 17.021502zm-32.053826 13.074699 8.99122 33.063135 9.127897-32.964307c-2.775302 1.059724-5.784687 1.646424-8.932344 1.646427-3.244193-.000003-6.341422-.622829-9.186773-1.745255z" fill="url(#c)"/><path d="m64.000002 48c-8.836554.000008-15.999994 7.163448-16.000002 16.000002.000008 8.836553 7.163448 15.999995 16.000002 16.000003 8.836553-.000008 15.999995-7.16345 16.000003-16.000003-.000008-8.836554-7.16345-15.999994-16.000003-16.000002z" fill="url(#b)"/></g></svg>

<?xml version="1.0" encoding="UTF-8" standalone="no"?>
<svg
   xmlns:dc="http://purl.org/dc/elements/1.1/"
   xmlns:cc="http://creativecommons.org/ns#"
   xmlns:rdf="http://www.w3.org/1999/02/22-rdf-syntax-ns#"
   xmlns:svg="http://www.w3.org/2000/svg"
   xmlns="http://www.w3.org/2000/svg"
   xmlns:xlink="http://www.w3.org/1999/xlink"
   xmlns:sodipodi="http://sodipodi.sourceforge.net/DTD/sodipodi-0.dtd"
   xmlns:inkscape="http://www.inkscape.org/namespaces/inkscape"
   height="128"
   viewBox="0 0 128 128"
   width="128"
   version="1.1"
   id="svg31"
   sodipodi:docname="sc_symbolshapes.sun.svg"
   inkscape:version="0.92.3 (unknown)"
   inkscape:export-filename="/home/rizmut/Dokumen/Rizmut/Github/libreoffice-style-karasa-jaga/build/images_karasa_jaga/cmd/sc_symbolshapes.sun.png"
   inkscape:export-xdpi="12"
   inkscape:export-ydpi="12">
  <metadata
     id="metadata37">
    <rdf:RDF>
      <cc:Work
         rdf:about="">
        <dc:format>image/svg+xml</dc:format>
        <dc:type
           rdf:resource="http://purl.org/dc/dcmitype/StillImage" />
        <dc:title></dc:title>
      </cc:Work>
    </rdf:RDF>
  </metadata>
  <defs
     id="defs35">
    <linearGradient
       id="linearGradient3369">
      <stop
         id="stop3372"
         offset="0"
         style="stop-color:#ffffff;stop-opacity:1;" />
      <stop
         style="stop-color:#ffffff;stop-opacity:1;"
         offset="0.46428573"
         id="stop3374" />
      <stop
         style="stop-color:#f1f1f1;stop-opacity:1;"
         offset="0.78125"
         id="stop3376" />
      <stop
         id="stop3378"
         offset="0.90625"
         style="stop-color:#eaeaea;stop-opacity:1;" />
      <stop
         id="stop3384"
         offset="1"
         style="stop-color:#dfdfdf;stop-opacity:1;" />
    </linearGradient>
    <linearGradient
       id="linearGradient7422">
      <stop
         style="stop-color:#7c9fcf;stop-opacity:1"
         offset="0"
         id="stop7424" />
      <stop
         id="stop5348"
         offset="0.5"
         style="stop-color:#7c9ece;stop-opacity:1" />
      <stop
         id="stop7426"
         offset="1"
         style="stop-color:#7b9dcf;stop-opacity:1" />
    </linearGradient>
    <linearGradient
       inkscape:collect="always"
       xlink:href="#linearGradient3369"
       id="linearGradient1382"
       x1="63.9991"
       y1="122.1819"
       x2="63.9991"
       y2="0.0018"
       gradientUnits="userSpaceOnUse"
       gradientTransform="matrix(1.3751255,0,0,1.3751255,-24.008035,-24.008035)" />
    <linearGradient
       inkscape:collect="always"
       xlink:href="#linearGradient3369"
       id="linearGradient1384"
       x1="63.423752"
       y1="131.17645"
       x2="64.522041"
       y2="2.9322925"
       gradientUnits="userSpaceOnUse"
       gradientTransform="matrix(1.0256093,-0.00878338,0.00878338,1.0256093,-2.2011326,-1.0768605)" />
    <linearGradient
       inkscape:collect="always"
       xlink:href="#linearGradient7422"
       id="linearGradient850"
       x1="-0.00059941621"
       y1="64.000252"
       x2="128.0006"
       y2="64.000252"
       gradientUnits="userSpaceOnUse" />
  </defs>
  <sodipodi:namedview
     pagecolor="#ffffff"
     bordercolor="#666666"
     borderopacity="1"
     objecttolerance="10"
     gridtolerance="10"
     guidetolerance="10"
     inkscape:pageopacity="0"
     inkscape:pageshadow="2"
     inkscape:window-width="1364"
     inkscape:window-height="704"
     id="namedview33"
     showgrid="true"
     inkscape:zoom="2.8284271"
     inkscape:cx="87.173766"
     inkscape:cy="32.231212"
     inkscape:window-x="0"
     inkscape:window-y="0"
     inkscape:window-maximized="0"
     inkscape:current-layer="svg31"
     inkscape:snap-global="true">
    <inkscape:grid
       type="xygrid"
       id="grid844"
       spacingx="8"
       spacingy="8"
       empspacing="2" />
  </sodipodi:namedview>
  <linearGradient
     id="a">
    <stop
       offset="0"
       stop-color="#f9f9fa"
       id="stop2" />
    <stop
       offset="1"
       stop-color="#f9f9fa"
       stop-opacity="0"
       id="stop4" />
  </linearGradient>
  <linearGradient
     id="b"
     gradientUnits="userSpaceOnUse"
     x1="42.276669"
     x2="-13.469376"
     xlink:href="#a"
     y1="50.867565"
     y2="104.97279" />
  <linearGradient
     id="c"
     gradientUnits="userSpaceOnUse"
     x1="-1.817377"
     x2="2.172436"
     xlink:href="#a"
     y1="55.003803"
     y2="116.784" />
  <path
     style="opacity:1;fill:url(#linearGradient850);fill-opacity:1;stroke:none;stroke-width:4.1025877;stroke-linecap:square;stroke-linejoin:bevel;stroke-miterlimit:4;stroke-dasharray:none;stroke-dashoffset:0;stroke-opacity:0.72941176"
     d="m 64.232422,0 c -3.443497,-0.01722312 -6.47203,2.2735805 -7.392578,5.5917969 L 50.085938,29.980469 28.068359,17.376953 C 21.335461,13.527239 13.818635,21.00888 17.636719,27.759766 L 30.107422,49.783203 5.6269531,56.441406 c -7.4848456,2.037456 -7.5101832,12.645562 -0.035156,14.71875 L 29.980469,77.914062 17.376953,99.931641 c -3.849712,6.732899 3.631928,14.249719 10.382813,10.431639 l 22.023437,-12.470702 6.658203,24.480472 c 2.037485,7.48484 12.64559,7.51013 14.71875,0.0351 l 6.753906,-24.388619 22.017579,12.603519 c 6.732899,3.84972 14.249739,-3.63193 10.431639,-10.38282 L 97.892578,78.216797 122.37305,71.558594 c 7.48484,-2.037485 7.51013,-12.64559 0.0351,-14.71875 L 98.019531,50.085938 110.62305,28.068359 c 3.84973,-6.732904 -3.63193,-14.249739 -10.38282,-10.43164 L 78.216797,30.107422 71.558594,5.6269531 C 70.657772,2.3185693 67.661211,0.01702495 64.232422,0 Z"
     id="path840"
     inkscape:connector-curvature="0"
     sodipodi:nodetypes="cccccccccccccccccccccccccc" />
  <path
     inkscape:connector-curvature="0"
     style="opacity:1;fill:url(#linearGradient1384);fill-opacity:1;stroke:none;stroke-width:4.1025877;stroke-linecap:square;stroke-linejoin:bevel;stroke-miterlimit:4;stroke-dasharray:none;stroke-dashoffset:0;stroke-opacity:0.72941176"
     d="M 64.195553,7.6282442 55.067656,40.592547 C 57.842958,39.532824 60.852343,38.946122 64,38.94612 c 3.244193,2e-6 6.341422,0.622829 9.186773,1.745255 z M 24.277562,24.000003 41.132947,53.766074 C 43.683363,48.076233 48.289979,43.512232 54.012091,41.021502 Z M 104,24.277562 74.233926,41.132947 c 5.689841,2.550416 10.253841,7.157032 12.744572,12.879144 z M 40.691375,54.813227 7.6282442,63.804447 40.592547,72.932344 C 39.532824,70.157042 38.946122,67.147656 38.94612,64 c 2e-6,-3.244193 0.622829,-6.341422 1.745255,-9.186773 z m 46.716078,0.254429 c 1.059724,2.775302 1.646424,5.784687 1.646427,8.932344 -3e-6,3.244193 -0.622829,6.341422 -1.745255,9.186773 l 33.063135,-8.99122 z M 41.021502,73.987909 24.000003,103.72243 53.766074,86.867053 C 48.076233,84.316637 43.512232,79.710021 41.021502,73.987909 Z m 45.845551,0.246017 C 84.316637,79.923767 79.710021,84.487767 73.987909,86.978498 L 103.72243,104 Z m -32.053826,13.074699 8.99122,33.063135 9.127897,-32.964307 C 70.157042,88.467177 67.147657,89.053877 64,89.05388 c -3.244193,-3e-6 -6.341422,-0.622829 -9.186773,-1.745255 z"
     id="path1992" />
  <path
     style="opacity:1;fill:url(#linearGradient1382);fill-opacity:1;stroke:none;stroke-width:3.08837652;stroke-linecap:square;stroke-linejoin:bevel;stroke-miterlimit:4;stroke-dasharray:none;stroke-dashoffset:0;stroke-opacity:0.72941176"
     d="M 64.000002,48 C 55.163448,48.000008 48.000008,55.163448 48,64.000002 c 8e-6,8.836553 7.163448,15.999995 16.000002,16.000003 8.836553,-8e-6 15.999995,-7.16345 16.000003,-16.000003 C 79.999997,55.163448 72.836555,48.000008 64.000002,48 Z"
     id="path831-3"
     inkscape:connector-curvature="0"
     sodipodi:nodetypes="ccccc" />
</svg>
